!!!OTL: GEH AUS MEIN HERZ UND SUCHE FREUD
!!!ARE: Europa, Mitteleuropa, Deutschland
!!!SCT: B0749
!!!YEM: Copyright 1995, estate of Helmut Schaffrath.
**kern
*ICvox
*Ivox
*M4/4
*k[b-]
*F:
{4c
=1
4.a
8g
8b-
8a
8g
8f
=2
4.e
8f
4g}
{4c
=3
4.b-
8a
8cc
8b-
8a
8g
=4
4a
8dd
8cc
4cc}
{4a
=5
4.g
8cc
8cc
8b-
8a
8bn
=6
2dd
4cc}
{4cc
=7
4.ee
8cc
4ff
4a
=8
4.cc
8b-
4a}
{4cc
=9
4.ee
8cc
4ff
4a
=10
4.cc
8b-
4a}
{4a
=11
4.g
8dd
4cc
4e
=12
2g
4f}
==
!!!AGN: Jahreszeiten - Lied, Sommer, religioes
!!!ONB: ESAC (Essen Associative Code) Database: BOEHME
!!!AMT: simple quadruple
!!!AIN: vox
!!!EED: Helmut Schaffrath
!!!EEV: 1.0
*-
